resources/haticons/SVG/highlight_remove.svg

<!-- Generated by IcoMoon.io -->
<svg version="1.1" xmlns="http://www.w3.org/2000/svg" width="24" height="24" viewBox="0 0 24 24">
<title>highlight_remove</title>
<path d="M12 20.016q3.281 0 5.648-2.367t2.367-5.648-2.367-5.648-5.648-2.367-5.648 2.367-2.367 5.648 2.367 5.648 5.648 2.367zM12 2.016q4.125 0 7.055 2.93t2.93 7.055-2.93 7.055-7.055 2.93-7.055-2.93-2.93-7.055 2.93-7.055 7.055-2.93zM14.578 8.016l1.406 1.406-2.578 2.578 2.578 2.578-1.406 1.406-2.578-2.578-2.578 2.578-1.406-1.406 2.578-2.578-2.578-2.578 1.406-1.406 2.578 2.578z"></path>
</svg>

<svg xmlns="http://www.w3.org/2000/svg" width="24" height="24"><path d="M12 20.016q3.281 0 5.648-2.367t2.367-5.648-2.367-5.648T12 3.986 6.352 6.353t-2.367 5.648 2.367 5.648T12 20.016zm0-18q4.125 0 7.055 2.93t2.93 7.055-2.93 7.055T12 21.986t-7.055-2.93-2.93-7.055 2.93-7.055T12 2.016zm2.578 6l1.406 1.406L13.406 12l2.578 2.578-1.406 1.406L12 13.406l-2.578 2.578-1.406-1.406L10.594 12 8.016 9.422l1.406-1.406L12 10.594z"/></svg>
